X:1
T:Ulham
T:C Major              Hezekiah Moors, 1809
T:Isaac Watts, 1709 (Hymn 15, Book 2)                       88. 88. (L. M.)
T:Transcribed from Province Harmony, 1809.
%%score [ 1 2 3 4 ]
L:1/8
Q:1/4=140
M:2/2
K:C
V:1 treble nm="Tr." snm="Tr."
V:2 treble nm="C." snm="C."
V:3 treble-8 nm="T." snm="T."
V:4 bass nm="B." snm="B."
V:1
"_2. Hail great Immanuel, all divine!  In  thee  thy  Father's  glo – ries  shine;                             Thou brightest, sweetest,  fai  –  rest   one,  That""_1. Blest Jesus, what delicious fare!  How sweet thy en–ter–tain–ments  are!                             Ne  –  ver  did  an – gels   taste   a  –  bove   Re –" G4 c2 d2 | %1
 e2 d2 c2 B2 | c6 B2 | c2 e2 d2 c2 | B6 A2 | B6 z2 |: z4 z2 G2 | c2 c2 c2 BA | GF EF G2 G2 | %9
"_1. –deeming grace, and  dying love,   Re  –  dee    –     ming               grace, _________  and    dy  –  ing    love.""_2.  eyes have seen or angels known,   That   eyes          have                seen __________   or      an  –  gels known." A2 c2 B2 d2 | %10
 cB AG G2 B2 | c4 (c3 d) | (e>fed c2) f2 | e4 d4 |1 c6 z2 :|2 c8 |] %16
V:2
"_2. Hail great Immanuel, all divine!  In  thee  thy  Father's  glo – ries  shine;                                                                                                 Thou""_1. Blest Jesus, what delicious fare!  How sweet thy en–ter–tain–ments  are!                                                                                                  Ne  –" E4 G2 G2 | %1
 G2 G2 G2 G2 | G6 G2 | G2 E2 F2 GA | G6 ^F2 | G6 z2 |: z8 | z8 | z4 z2 CD | %9
"_1. –  ver  did angels  taste   a  –  bove   Re  –  dee    –     ming               grace, _________  and    dy  –  ing    love.""_2. brightest  sweetest  fai – rest  one,   That   eyes          have                seen __________   or      an  –  gels known." E2 E2 E2 G2 | %10
 G2 G2 G2 G2 | G4 G4 | (G>FEF G2) A2 | G4 G4 |1 [EG]6 z2 :|2 [EG]8 |] %16
V:3
"_2. Hail great Immanuel, all divine!  In  thee  thy  Father's  glo – ries  shine;                                                         Thou     brightest,     sweetest,""_1. Blest Jesus, what delicious fare!  How sweet thy en–ter–tain–ments  are!                                                         Ne   –   ver     did     an  –  gels" c4 e2 c2 | %1
 c2 B2 c2 d2 | e6 d2 | e2 g2 f2 e2 | d6 d2 | d6 z2 |: z8 | z4 z2 d2 | e2 e2 e2 ed | %9
"_1. taste above   Re – dee      –     ming            grace, ___________________________   and      dy  – ing     love.""_2. fairest one,  That  eyes            have            seen _____________________________   or        an – gels  known." c2 c2 B2 B2 | %10
 c4 d4 | (e3 d edef | g>agf e2) d2 | c4 B4 |1 c6 z2 :|2 c8 |] %16
V:4
 C,4 C,2 G,,2 | C,2 G,2 E,2 G,2 | C,6 G,2 | E,2 C,2 D,2 E,F, | G,6 D,2 | %5
 G,6"_2. Thou brightest, sweetest, fairest  one,  That  eyes   have   seen    or""_1. Ne   –   ver  did  an–gels  taste  above  Re  –  dee – ming grace, and" G,2 |: %6
 E,2 E,2 E,2 E,D, | C,2 C,2 C,2 G,,2 | C,2 C,2 C,2 CB, | %9
"_1. dying love,  Re – dee       –      ming           grace, __________________________     and      dy  –  ing      love.     Ne–""_2. angels known, That  eyes         have           seen ____________________________     or        an  – gels   known.   Thou" A,2 A,2 G,2 G,2 | %10
 C,4 G,4 | C8- | C6 F,2 | G,4 G,4 |1 C,6 G,2 :|2 C,8 |] %16

